build/assets/images/svg/icons/product/box.svg

<svg width="24" height="24" viewBox="0 0 24 24" fill="none" xmlns="http://www.w3.org/2000/svg">
<path d="M8.53407 3.52385C9.75108 3.14086 10.8338 2.8271 11.453 2.65152C11.8133 2.54939 12.1844 2.55403 12.5423 2.66431C14.2014 3.1757 19.2128 4.7588 21.1873 5.81636L17.6941 7.28715L8.53407 3.52385Z" fill="#70798E"/>
<path d="M6.34571 4.24644C4.89095 4.75369 3.51133 5.29975 2.71089 5.77902C2.73764 5.78691 2.76423 5.79637 2.79055 5.80745L11.9995 9.6848L15.7447 8.10792L6.34571 4.24644Z" fill="#70798E"/>
<path d="M1.89249 6.93934C1.65708 8.59801 1.83905 13.7889 1.94167 16.2194C1.97464 17.0003 2.46462 17.6847 3.19023 17.975L11.2568 21.2016C11.2645 21.2046 11.2722 21.2077 11.2799 21.2107C11.2601 21.1434 11.2495 21.0722 11.2495 20.9986V10.9966L2.20848 7.18991C2.07742 7.13473 1.97024 7.04666 1.89249 6.93934Z" fill="#70798E"/>
<path d="M12.7191 21.2107C12.7268 21.2077 12.7346 21.2047 12.7423 21.2016L20.8089 17.9749C21.5345 17.6847 22.0244 17.0003 22.0574 16.2195C22.1601 13.7889 22.3421 8.5978 22.1066 6.93924C22.0289 7.04661 21.9216 7.13471 21.7905 7.18991L12.7495 10.9966V20.9986C12.7495 21.0722 12.7389 21.1434 12.7191 21.2107Z" fill="#70798E"/>
</svg>

<svg width="24" height="24" fill="none" xmlns="http://www.w3.org/2000/svg"><path d="M8.534 3.524c1.217-.383 2.3-.697 2.919-.872a1.9 1.9 0 011.09.012c1.658.512 6.67 2.095 8.644 3.152l-3.493 1.471-9.16-3.763zm-2.188.722C4.89 4.754 3.51 5.3 2.71 5.78a.758.758 0 01.08.028L12 9.685l3.745-1.577-9.4-3.862zM1.892 6.94c-.235 1.658-.053 6.849.05 9.28.033.78.523 1.465 1.248 1.755l8.067 3.227.023.009a.75.75 0 01-.03-.212V10.997L2.207 7.19a.746.746 0 01-.316-.25zM12.72 21.21l.022-.008 8.067-3.227a1.981 1.981 0 001.248-1.756c.103-2.43.285-7.621.05-9.28a.746.746 0 01-.316.25l-9.042 3.808v10.002a.75.75 0 01-.03.212z" fill="#70798E"/></svg>
